flaticon/religion/angel.svg

<svg xmlns="http://www.w3.org/2000/svg" width="32" height="32" viewBox="0 0 24 24">
    <path d="M5.789062 5.738281C4.664062 5.574219 3.542969 5.921875 2.710938 6.699219 1.914062 7.449219 1.507812 8.496094 1.59375 9.578125 1.652344 10.238281 1.839844 10.96875 2.164062 11.738281 2.289062 12.171875 4.242188 19.144531 2.324219 21.710938 1.871094 22.316406 1.242188 22.609375.398438 22.609375.195312 22.609375.0273438 22.761719.00390625 22.960938-.0195312 23.164062.109375 23.351562.308594 23.398438.355469 23.40625.769531 23.5 1.421875 23.5 2.550781 23.5 4.382812 23.222656 6.207031 21.765625 7.089844 21.0625 7.792969 20.171875 8.304688 19.125 8.949219 17.808594 9.191406 16.28125 9.007812 14.707031 8.875 13.5625 8.796875 11.496094 9.773438 10.519531 10.488281 9.804688 10.308594 8.679688 9.777344 7.976562 9.175781 7.179688 8.105469 6.082031 5.789062 5.738281zM9.207031 9.953125C8.050781 11.109375 8.027344 13.226562 8.210938 14.796875 8.378906 16.222656 8.164062 17.59375 7.585938 18.773438 7.128906 19.714844 6.496094 20.511719 5.707031 21.140625 4.621094 22.007812 3.527344 22.40625 2.625 22.578125 2.746094 22.460938 2.859375 22.332031 2.964844 22.191406 5.171875 19.238281 3.019531 11.804688 2.925781 11.492188 2.921875 11.476562 2.917969 11.460938 2.910156 11.449219 2.617188 10.75 2.441406 10.097656 2.394531 9.511719 2.324219 8.675781 2.640625 7.863281 3.261719 7.285156 3.800781 6.773438 4.507812 6.5 5.238281 6.5 5.382812 6.5 5.527344 6.511719 5.671875 6.53125 7.675781 6.828125 8.578125 7.71875 9.140625 8.460938 9.464844 8.886719 9.582031 9.578125 9.207031 9.953125zM23.601562 22.609375C22.757812 22.609375 22.128906 22.316406 21.675781 21.710938 19.757812 19.148438 21.710938 12.171875 21.835938 11.738281 22.160156 10.96875 22.347656 10.238281 22.40625 9.574219 22.492188 8.496094 22.085938 7.449219 21.289062 6.699219 20.460938 5.921875 19.339844 5.574219 18.210938 5.738281 15.898438 6.082031 14.824219 7.179688 14.222656 7.976562 13.691406 8.675781 13.511719 9.804688 14.226562 10.519531 15.203125 11.496094 15.125 13.5625 14.992188 14.703125 14.808594 16.28125 15.050781 17.808594 15.695312 19.125 16.207031 20.171875 16.910156 21.058594 17.792969 21.765625 19.617188 23.222656 21.449219 23.5 22.578125 23.5 23.230469 23.5 23.644531 23.40625 23.691406 23.394531 23.890625 23.351562 24.019531 23.164062 23.996094 22.960938 23.972656 22.761719 23.804688 22.609375 23.601562 22.609375zM18.292969 21.140625C17.503906 20.511719 16.871094 19.714844 16.414062 18.773438 15.835938 17.59375 15.621094 16.21875 15.789062 14.796875 15.972656 13.226562 15.945312 11.109375 14.792969 9.953125 14.417969 9.578125 14.535156 8.886719 14.859375 8.460938 15.421875 7.71875 16.324219 6.828125 18.328125 6.53125 18.472656 6.511719 18.617188 6.5 18.761719 6.5 19.492188 6.5 20.195312 6.773438 20.738281 7.28125 21.359375 7.863281 21.675781 8.675781 21.605469 9.511719 21.558594 10.09375 21.382812 10.746094 21.089844 11.449219 21.082031 11.460938 21.078125 11.476562 21.074219 11.492188 20.980469 11.804688 18.828125 19.238281 21.035156 22.191406 21.140625 22.332031 21.253906 22.460938 21.375 22.578125 20.472656 22.40625 19.375 22.007812 18.292969 21.140625zM18.246094 3.300781C18.246094 1.703125 15.550781.5 11.980469.5 8.40625.5 5.710938 1.703125 5.710938 3.300781 5.710938 4.894531 8.40625 6.097656 11.980469 6.097656 15.550781 6.097656 18.246094 4.894531 18.246094 3.300781zM11.980469 5.300781C8.757812 5.300781 6.511719 4.246094 6.511719 3.300781 6.511719 2.355469 8.757812 1.300781 11.980469 1.300781 15.203125 1.300781 17.445312 2.355469 17.445312 3.300781 17.445312 4.246094 15.203125 5.300781 11.980469 5.300781zM11.980469 5.300781"/>
    <path d="M 15.878906 2.796875 C 15.417969 2.585938 14.117188 2.101562 11.980469 2.101562 C 9.839844 2.101562 8.539062 2.585938 8.078125 2.796875 C 7.882812 2.886719 7.757812 3.082031 7.757812 3.300781 C 7.757812 3.515625 7.882812 3.714844 8.078125 3.804688 C 8.539062 4.011719 9.839844 4.5 11.980469 4.5 C 14.117188 4.5 15.417969 4.011719 15.878906 3.804688 C 16.074219 3.714844 16.203125 3.515625 16.203125 3.300781 C 16.203125 3.082031 16.074219 2.886719 15.878906 2.796875 Z M 11.980469 3.699219 C 10.617188 3.699219 9.625 3.484375 9.019531 3.300781 C 9.625 3.113281 10.617188 2.898438 11.980469 2.898438 C 13.34375 2.898438 14.335938 3.113281 14.9375 3.300781 C 14.335938 3.484375 13.34375 3.699219 11.980469 3.699219 Z M 11.980469 3.699219"/>
</svg>

<svg xmlns="http://www.w3.org/2000/svg" width="32" height="32" viewBox="0 0 24 24">
    <path d="M5.79 5.738a3.7 3.7 0 0 0-3.08.961 3.547 3.547 0 0 0-1.116 2.88c.058.66.246 1.39.57 2.16.125.433 2.078 7.406.16 9.972-.453.605-1.082.898-1.926.898a.4.4 0 1 0-.09.79c.047.007.462.101 1.114.101 1.129 0 2.96-.277 4.785-1.734a7.61 7.61 0 0 0 2.098-2.641c.644-1.316.886-2.844.703-4.418-.133-1.145-.211-3.21.765-4.187.715-.715.536-1.84.004-2.543-.601-.797-1.672-1.895-3.988-2.239zm3.417 4.215c-1.156 1.156-1.18 3.274-.996 4.844.168 1.426-.047 2.797-.625 3.976a6.786 6.786 0 0 1-1.879 2.368 7.01 7.01 0 0 1-3.082 1.437c.121-.117.234-.246.34-.387 2.207-2.953.055-10.386-.04-10.699a.14.14 0 0 0-.015-.043c-.293-.699-.469-1.351-.515-1.937a2.718 2.718 0 0 1 .867-2.227A2.863 2.863 0 0 1 5.238 6.5c.145 0 .29.012.434.031 2.004.297 2.906 1.188 3.469 1.93.324.426.441 1.117.066 1.492zm0 0M23.602 22.61c-.844 0-1.473-.294-1.926-.9-1.918-2.562.035-9.538.16-9.972.324-.77.512-1.5.57-2.164A3.544 3.544 0 0 0 21.29 6.7a3.693 3.693 0 0 0-3.078-.96c-2.313.343-3.387 1.44-3.988 2.238-.532.699-.711 1.828.004 2.543.976.976.898 3.043.765 4.183-.183 1.578.059 3.106.703 4.422a7.646 7.646 0 0 0 2.098 2.64c1.824 1.458 3.656 1.735 4.785 1.735.652 0 1.067-.094 1.113-.105.2-.043.329-.23.305-.434a.397.397 0 0 0-.394-.352zm-5.309-1.47a6.786 6.786 0 0 1-1.879-2.367c-.578-1.18-.793-2.554-.625-3.976.184-1.57.156-3.688-.996-4.844-.375-.375-.258-1.066.066-1.492.563-.742 1.465-1.633 3.47-1.93a2.884 2.884 0 0 1 2.41.75 2.73 2.73 0 0 1 .866 2.23c-.046.583-.222 1.235-.515 1.938a.14.14 0 0 0-.016.043c-.094.313-2.246 7.746-.039 10.7.106.14.219.269.34.386-.902-.172-2-.57-3.082-1.437zm0 0M18.246 3.3c0-1.597-2.695-2.8-6.266-2.8-3.574 0-6.27 1.203-6.27 2.8 0 1.595 2.696 2.798 6.27 2.798 3.57 0 6.266-1.203 6.266-2.797zm-6.266 2c-3.222 0-5.468-1.054-5.468-2 0-.945 2.246-2 5.468-2 3.223 0 5.465 1.055 5.465 2 0 .946-2.242 2-5.465 2zm0 0"/>
    <path d="M15.879 2.797c-.461-.211-1.762-.695-3.899-.695-2.14 0-3.44.484-3.902.695a.556.556 0 1 0 0 1.008c.461.207 1.762.695 3.902.695 2.137 0 3.438-.488 3.899-.695a.555.555 0 0 0 0-1.008zm-3.899.902c-1.363 0-2.355-.215-2.96-.398.605-.188 1.597-.403 2.96-.403 1.364 0 2.356.215 2.957.403-.601.183-1.593.398-2.957.398zm0 0"/>
</svg>
